hosted/assets/icon/widgets/dark-mode/vertical-slider.svg

<svg width="50" height="50" viewBox="0 0 50 50" fill="none" xmlns="http://www.w3.org/2000/svg">
<path d="M5 21L5 35.9677L5 37L38.5802 37L45 28.7419L38.5802 21L5 21Z" fill="#4A6BB7"/>
<path d="M3.5 35.5002C3.5 37.1452 4.85503 38.5002 6.5 38.5002L23.5 38.5002L23.5 46.5002L21.5 46.5002L21.5 48.5002L27.5 48.5002L27.5 46.5002L25.5 46.5002L25.5 38.5002L39.5 38.5002C39.6554 38.5003 39.8087 38.4641 39.9477 38.3946C40.0867 38.3251 40.2076 38.2242 40.3008 38.0998L46.3008 30.0998C46.4304 29.9268 46.5005 29.7164 46.5005 29.5002C46.5005 29.284 46.4304 29.0737 46.3008 28.9006L40.3008 20.9006C40.2076 20.7762 40.0867 20.6753 39.9477 20.6058C39.8087 20.5363 39.6554 20.5002 39.5 20.5002L25.5 20.5002L25.5 4.50023L27.5 4.50023L27.5 2.50023L21.5 2.50023L21.5 4.50023L23.5 4.50023L23.5 20.5002L6.5 20.5002C4.85503 20.5002 3.5 21.8553 3.5 23.5002L3.5 35.5002ZM5.5 35.5002L5.5 23.5002C5.5 22.9352 5.93497 22.5002 6.5 22.5002L39 22.5002L44.25 29.5002L39 36.5002L6.5 36.5002C5.93497 36.5002 5.5 36.0653 5.5 35.5002Z" fill="white"/>
</svg>

<svg width="50" height="50" fill="none" xmlns="http://www.w3.org/2000/svg"><path d="M5 21v16h33.58L45 28.742 38.58 21H5z" fill="#4A6BB7"/><path d="M3.5 35.5c0 1.645 1.355 3 3 3h17v8h-2v2h6v-2h-2v-8h14a1 1 0 00.8-.4l6-8a1 1 0 000-1.2l-6-8a1 1 0 00-.8-.4h-14v-16h2v-2h-6v2h2v16h-17c-1.645 0-3 1.355-3 3v12zm2 0v-12c0-.565.435-1 1-1H39l5.25 7-5.25 7H6.5c-.565 0-1-.435-1-1z" fill="#fff"/></svg>
